frontend/public/assets/material-icons/heroku.svg

<svg xmlns="http://www.w3.org/2000/svg" viewBox="0 0 32 32"><path fill="#7E57C2" d="M28 2H6a2 2 0 0 0-2 2v24a2 2 0 0 0 2 2h22a2 2 0 0 0 2-2V4a2 2 0 0 0-2-2M10 26v-6l4 3Zm14 0h-4v-6.45a2.55 2.55 0 0 0-.95-1.987 2.75 2.75 0 0 0-2.278-.478L10 18.44V6h4v7.56l2.16-.43A6.558 6.558 0 0 1 24 19.55Zm0-16h-4V6h4Z"/></svg>

<svg xmlns="http://www.w3.org/2000/svg" viewBox="0 0 32 32">
  <path d="M28,2H6A2,2,0,0,0,4,4V28a2,2,0,0,0,2,2H28a2,2,0,0,0,2-2V4A2,2,0,0,0,28,2ZM10,26V20l4,3Zm14,0H20V19.55a2.54573,2.54573,0,0,0-.9505-1.98694,2.75,2.75,0,0,0-2.277-.4776L10,18.44V6h4v7.56l2.16-.43A6.55776,6.55776,0,0,1,24,19.55Zm0-16H20V6h4Z" style="fill: #6963b9"/>
</svg>
